X:17
T:No 16 Pollonoise
S:efter Carl Gustaf Sundblad
O:Godegård, Östergötland 
R:Polonäs
B:Carl Gustaf Sundblads notbok
B:http://www.smus.se/earkiv/fmk/browselarge.php?lang=sw&katalogid=M+27&bildnr=00009
B:http://www.smus.se/earkiv/fmk/browselarge.php?lang=sw&katalogid=%C3%96g+20&bildnr=00018
M:3/4
L:1/8
K:G
de/2f/2 ggff | ee d2 d2 | BBccBB | AA G2 G2 :: 
GBBAA2 | AccB B2 | Bddc c2 |ceed d2 | 
de/2f/2 ggff | ee d2 d2 | BA/2B/2 ccBB | AA G2 G2|:]

